X:1
T:Miss Ann Forbes' Reel.
R:reel
M:C
L:1/8
B:Complete Tutor Violin  (c. 1815)
Z:Dr. Evan Jones, 2005
K:A
U:T=!trill!
N:  2nd system bar 2 g replaced with a
e |:: A/A/A (cA) (Bcdf) | A/A/A (ec) AAec | (de/f/) (cd/e/) Bcdf | edTcB AAce :|
|: A/A/A (ac) Bcdf |A/A/A (ac) A/A/A (ac) | (a/g/f/e/) (ac) Bcdf | edTcB AAce :|
|: Aece Bcdf | Aece Aece | (d/e/f) (c/d/e) Bcdf |edTcB AAce :|
|: A/A/A (ac) Bcdf | A/A/A (ac) AAae | (a/g/f/e/) (ac) Bcdf | edcTB AAce :|]

